public/assets/BG8.svg

<svg width="3149" height="772" viewBox="0 0 3149 772" fill="none" xmlns="http://www.w3.org/2000/svg">
<path d="M0 746.499V767L166.238 764.675H182V746.499L179.268 743.117L178.007 728.534L179.268 720.714L170.021 718.601H141.649L139.758 707.188L136.395 701.058L134.293 697.677L132.822 692.816L131.982 673.371L132.822 669.356V662.381H137.446V657.731L130.931 657.52L126.097 650.545L124.836 645.05L125.467 638.287L123.785 635.962L118.741 631.101L117.48 628.565L115.799 625.183L115.379 620.956L117.691 615.672V613.77L115.169 610.811L116.219 608.275L113.487 608.909L109.494 608.064L108.023 604.048L103.4 505.981L103.61 503.234L103.189 487.171L104.45 484.212L104.661 475.546L105.501 472.588L105.711 471.319L103.82 469.417L98.9861 469.84L98.5658 465.824L100.037 464.979L100.667 463.711L98.3557 463.499L98.1455 459.484L99.8268 458.427L100.247 456.948L97.7252 457.37L97.3048 454.2L98.5658 452.932V452.086L97.0947 451.875L96.6744 447.648L97.7252 447.437V446.591L96.254 445.535L96.8845 439.194L98.1455 433.065L95.8337 430.74L93.7321 423.977V420.806L94.7829 418.904V415.523H96.254V414.466L94.7829 412.352V406.857L94.1524 404.532L93.7321 398.403L92.4711 394.388L93.7321 392.697V395.022L96.8845 396.501L99.6166 391.006L106.552 386.568L110.335 385.299L104.24 384.665L99.6166 385.934L95.8337 388.681L93.1016 387.836L96.254 385.934V383.82L94.7829 383.397V376.634L93.1016 376L93.7321 382.129L92.4711 383.82L91.2102 385.299L87.8476 387.413L85.746 387.836L75.0277 382.552L75.448 383.82L85.5358 389.104L85.746 392.697L86.3764 393.754V398.403L88.8984 412.986L82.8037 411.718L80.0716 413.832L74.6074 417.002L72.5058 416.579L75.0277 418.904L78.8106 417.002L80.0716 418.904H81.963V415.945L85.746 417.425L87.4272 421.652L87.8476 425.034L84.6951 429.683L81.963 434.333L83.4342 438.137L85.3256 439.617L84.2748 448.705H83.0139V449.128L84.0647 450.184L83.6443 453.777L82.3834 453.566V455.679H83.4342V459.272L81.5427 459.906V461.175H83.224L82.3834 465.613L81.1224 464.979L79.8614 469.206L80.7021 471.742L77.5497 471.319L75.8684 472.588L76.4988 476.603L77.5497 477.66L76.9192 485.269L77.5497 487.171L79.0208 489.918V508.095L75.6582 601.512L70.4042 598.342L64.5196 595.171L58.4249 596.862L57.5843 599.398L60.9469 598.764L66.8314 599.398L71.6651 601.512L73.9769 604.894L73.3464 608.275V612.502L70.4042 616.518L68.933 610.6H66.8314L62.418 613.77L63.2587 615.461L66.8314 617.997L65.3603 619.899L60.5266 623.281L51.0693 626.24V629.41L55.0624 636.174L56.3233 642.514L55.0624 653.293L49.388 657.731L51.0693 662.381L53.1709 673.371L51.0693 691.759L47.2864 704.863L45.3949 709.09L43.7136 720.714H40.1409H14.9215L3.15242 722.828V731.282L6.30485 739.947L3.15242 744.808L0 746.499Z" fill="#2E5A9C"/>
<path d="M951.611 615.368V758.086L2353.1 769V640.554L2380 601.936V558.281H1921.81V523.86L1910.88 497.835L1811.67 476.847L1806.63 398.772L1730.12 383.66L1714.15 350.919L1705.74 240.103L1686.4 214.078V148.595L1681.36 129.286V105.779L1631.76 69.6801V25.1856H1614.1V0H1605.69V30.2227H1590.56V69.6801L1535.91 105.779V120.891L1527.51 136.002V209.88L1498.92 246.819V368.549L1483.79 394.574H1406.44V450.822H1101.26V497.835H992.806V514.626H946.567L939 532.255L946.567 558.281V591.861L939 601.936L951.611 615.368Z" fill="#2E5A9C"/>
<path d="M197.123 283.97H179.01L170.732 272.349L175.071 265.006L169 260V764H617V270.143L616.05 281.407L613.471 282.222L610.808 290.751L609.641 288.189H592.009L591.46 290.751H488.249L484.449 288.06L483.853 273.467L488.249 270.562L486.759 265.868L479.681 271.456L479.16 280.47L477.148 277.863L472.082 275.181V270.562L475.509 269.817L472.902 263.633H465.526L462.695 269.221L466.197 271.456V276.224L461.503 278.31L460.621 286.014L454.486 288.06V292.733L340.849 288.06L332.085 283.97L328.872 280.172V273.161H323.029L324.49 268.487V260.6H318.355L315.726 268.487L318.355 273.161L313.097 274.622L309.883 281.925L304.041 278.712L301.996 283.97L306.67 290.689L199.167 288.06L197.123 283.97Z" fill="#2E5A9C"/>
<path d="M2135.39 491.045L2131 494.981V770H2597.6C2600.99 770 2597.09 505.312 2597.6 505.414C2598.01 505.496 2595.52 500.738 2594.22 498.349V477.769L2592.58 465.483L2588.17 441.934L2584.48 460.773L2580.79 441.934L2575.26 471.421L2574.33 417.258L2575.46 415.108L2573.72 411.627L2572.49 391.969L2573.1 375.791V369.443L2569.92 329.308L2573.1 323.574L2564.08 267.056L2562.24 268.899L2564.08 258.353L2561.31 256.612L2563.16 199.583L2561.31 191.187L2562.13 152.177L2554.65 108.97L2550.45 131.802L2551.47 107.843L2553.93 107.024L2558.14 104.669L2551.47 101.188L2552.6 94.1234L2551.47 90.4374L2553.32 66.0692L2549.63 61.3594L2542.25 60.4379C2538.86 59.4481 2531.97 57.4686 2531.48 57.4686C2530.99 57.4686 2521.64 58.6973 2517.03 59.3116L2515.08 60.4379L2506.98 61.3594L2503.08 66.7859L2504.93 73.2363L2500.32 72.622L2499.5 79.482L2494.68 79.9939L2495.29 73.2363L2485.76 72.622L2485.04 80.5058L2479.71 81.4273L2478.38 74.0554H2477.25V65.3525L2468.23 66.7859L2469.15 73.2363H2466.69L2465.67 80.5058H2460.44V74.0554C2457.7 73.8165 2452.11 73.3182 2451.62 73.2363C2451.13 73.1544 2450.12 77.7072 2449.67 79.9939L2445.68 81.4273L2444.14 74.5674H2440.45V67.4002L2432.45 65.3525L2424.25 68.5265L2423.64 93.7138V134.874L2418.51 111.222L2413.08 157.194V255.896L2411.95 258.251L2410.31 263.472H2411.95V277.397L2410.31 268.182L2404.87 308.625L2400.16 279.342L2396.47 316.202H2397.9L2397.39 338.158L2387.55 320.093L2386.73 314.973L2388.57 315.604L2389.5 312.926L2386.73 310.98L2387.55 302.434L2389.5 300.434L2383.96 271.252L2381.3 288.25L2368.09 169.922L2368.72 168.896V166.45L2367.53 165.267L2365.56 165.819L2363.98 168.028L2365.56 169.922L2361.29 211.499L2359.32 191.176L2359.71 189.33L2358.05 186.963L2358.84 180.967H2362L2361.29 179.626H2359.32V177.89L2358.05 177.338V179.626H2355.29L2354.81 180.967H2357.34L2356.67 186.963L2355.84 189.33L2356.67 191.176V195.263L2351.22 241.885L2348.79 232.954L2345.46 262.926L2346.37 285.935L2337.43 302.434L2338.34 299.558L2332.12 271.252L2326.36 301.072L2328.79 302.434L2330.15 318.48L2318.94 338.158V318.48L2320.15 315.604L2315.15 280.031L2311.96 308.035L2308.17 273.825L2306.81 262.169L2304.69 259.747V194.052C2304.59 181.437 2304.23 155.876 2303.63 154.544C2303.02 153.211 2300.24 123.815 2298.93 109.283L2294.69 116.246L2296.05 92.3295L2291.5 90.2102L2292.72 67.353L2282.26 66.142L2274.98 67.353V70.8346H2269.68V78.2518H2265.59L2264.22 75.6785L2261.49 71.7428H2256.34L2254.98 77.1922H2251.34V72.8024L2248.31 71.7428L2246.64 66.142H2238.46L2237.4 69.3209H2230.27H2225.12V70.8346L2221.78 71.7428V75.6785H2216.78V72.8024L2213.6 70.8346L2212.24 62.2068H2202.23L2198.9 57.5138L2185.41 56L2177.53 59.1793L2166.46 62.2068V103.078V142.283L2160.4 107.165L2155.7 153.787L2156.46 217.969L2155.7 260.505L2153.58 282.606L2147.82 318.633V340.431L2145.09 410.819L2143.73 414.906L2145.09 417.782L2143.73 454.262L2140.09 434.735L2136.91 454.262H2135.39L2134.03 467.583L2135.39 471.216V491.045Z" fill="#2E5A9C"/>
<path d="M2574.03 514.823V772H3134.73V701.395L3139.12 583.599V514.823L3133.26 514.457L3134.73 466.899L3147.17 452.998L3149 427.756L3131.07 423V378.003L3139.12 373.247V356.053H3131.07L3128.87 334.47L3134.73 329.348V320.202L3128.87 316.91L3121.18 256.548L3113.86 272.645H3110.57L3102.52 221.063L3099.96 217.039L3095.57 266.06L3089.34 270.45L3086.42 284.351L3092.64 291.302V309.959L3086.42 314.349V325.69H2897.2V277.766L2891.34 270.45V256.548L2889.51 238.257V221.063L2871.94 210.454V203.137L2877.8 191.431V180.822L2869.38 170.579V159.604V146.8L2864.99 132.167L2858.4 118.631V74H2854.38V111.314L2849.98 123.021L2847.42 136.191V146.8V170.579L2837.91 183.017V193.992L2844.86 203.137L2824.73 228.745L2820.7 258.377L2815.95 270.45V325.69L2617.58 328.616L2615.02 306.667L2610.26 292.399L2617.58 277.766L2615.02 274.84L2610.26 248.134V225.819L2602.57 228.745V243.378L2597.08 270.45H2593.42V286.18L2589.03 312.886H2585.74L2583.18 321.3L2585.74 330.811V354.59H2576.95V368.857L2580.61 378.369V417.147L2570 424.098V450.803L2580.61 466.168V514.823H2574.03Z" fill="#2E5A9C"/>
<rect x="414" y="476" width="672" height="288" fill="#2E5A9C"/>
</svg>

<svg width="3149" height="772" fill="none" xmlns="http://www.w3.org/2000/svg"><path d="M0 746.499V767l166.238-2.325H182v-18.176l-2.732-3.382-1.261-14.583 1.261-7.82-9.247-2.113h-28.372l-1.891-11.413-3.363-6.13-2.102-3.381-1.471-4.861-.84-19.445.84-4.015v-6.975h4.624v-4.65l-6.515-.211-4.834-6.975-1.261-5.495.631-6.763-1.682-2.325-5.044-4.861-1.261-2.536-1.681-3.382-.42-4.227 2.312-5.284v-1.902l-2.522-2.959 1.05-2.536-2.732.634-3.993-.845-1.471-4.016-4.623-98.067.21-2.747-.421-16.063 1.261-2.959.211-8.666.84-2.958.21-1.269-1.891-1.902-4.834.423-.42-4.016 1.471-.845.63-1.268-2.311-.212-.21-4.015 1.68-1.057.421-1.479-2.522.422-.42-3.17 1.26-1.268v-.846l-1.47-.211-.42-4.227 1.05-.211v-.846l-1.471-1.056.63-6.341 1.261-6.129-2.311-2.325-2.102-6.763v-3.171l1.05-1.902v-3.381h1.472v-1.057l-1.471-2.114v-5.495l-.63-2.325-.42-6.129-1.262-4.015 1.261-1.691v2.325l3.153 1.479 2.732-5.495 6.935-4.438 3.783-1.269-6.095-.634-4.623 1.269-3.783 2.747-2.732-.845 3.152-1.902v-2.114l-1.471-.423v-6.763L93.102 376l.63 6.129-1.26 1.691-1.262 1.479-3.362 2.114-2.102.423-10.718-5.284.42 1.268 10.088 5.284.21 3.593.63 1.057v4.649l2.522 14.583-6.094-1.268-2.732 2.114-5.465 3.17-2.101-.423 2.522 2.325 3.783-1.902 1.26 1.902h1.892v-2.959l3.783 1.48 1.681 4.227.42 3.382-3.152 4.649-2.732 4.65 1.471 3.804 1.892 1.48-1.051 9.088h-1.261v.423l1.05 1.056-.42 3.593-1.26-.211v2.113h1.05v3.593l-1.891.634v1.269h1.681l-.84 4.438-1.262-.634-1.26 4.227.84 2.536-3.152-.423-1.682 1.269.63 4.015 1.052 1.057-.63 7.609.63 1.902 1.47 2.747v18.177l-3.362 93.417-5.254-3.17-5.884-3.171-6.095 1.691-.84 2.536 3.362-.634 5.884.634 4.834 2.114 2.312 3.382-.63 3.381v4.227l-2.943 4.016-1.471-5.918h-2.102l-4.413 3.17.84 1.691 3.573 2.536-1.47 1.902-4.834 3.382-9.458 2.959v3.17l3.993 6.764 1.261 6.34-1.26 10.779-5.675 4.438 1.681 4.65 2.102 10.99-2.102 18.388-3.783 13.104-1.891 4.227-1.681 11.624H14.92l-11.769 2.114v8.454l3.153 8.665-3.153 4.861L0 746.499zM951.611 615.368v142.718L2353.1 769V640.554l26.9-38.618v-43.655h-458.19V523.86l-10.93-26.025-99.21-20.988-5.04-78.075-76.51-15.112-15.97-32.741-8.41-110.816-19.34-26.025v-65.483l-5.04-19.309v-23.507l-49.6-36.099V25.186h-17.66V0h-8.41v30.223h-15.13V69.68l-54.65 36.099v15.112l-8.4 15.111v73.878l-28.59 36.939v121.73l-15.13 26.025h-77.35v56.248h-305.18v47.013H992.806v16.791h-46.239L939 532.255l7.567 26.026v33.58L939 601.936l12.611 13.432z" fill="#2E5A9C"/><path d="M197.123 283.97H179.01l-8.278-11.621 4.339-7.343L169 260v504h448V270.143l-.95 11.264-2.579.815-2.663 8.529-1.167-2.562h-17.632l-.549 2.562H488.249l-3.8-2.691-.596-14.593 4.396-2.905-1.49-4.694-7.078 5.588-.521 9.014-2.012-2.607-5.066-2.682v-4.619l3.427-.745-2.607-6.184h-7.376l-2.831 5.588 3.502 2.235v4.768l-4.694 2.086-.882 7.704-6.135 2.046v4.673l-113.637-4.673-8.764-4.09-3.213-3.798v-7.011h-5.843l1.461-4.674V260.6h-6.135l-2.629 7.887 2.629 4.674-5.258 1.461-3.214 7.303-5.842-3.213-2.045 5.258 4.674 6.719-107.503-2.629-2.044-4.09zM2135.39 491.045l-4.39 3.936V770h466.6c3.39 0-.51-264.688 0-264.586.41.082-2.08-4.676-3.38-7.065v-20.58l-1.64-12.286-4.41-23.549-3.69 18.839-3.69-18.839-5.53 29.487-.93-54.163 1.13-2.15-1.74-3.481-1.23-19.658.61-16.178v-6.348l-3.18-40.135 3.18-5.734-9.02-56.518-1.84 1.843 1.84-10.546-2.77-1.741 1.85-57.029-1.85-8.396.82-39.01-7.48-43.207-4.2 22.832 1.02-23.959 2.46-.819 4.21-2.355-6.67-3.481 1.13-7.065-1.13-3.686 1.85-24.368-3.69-4.71-7.38-.921c-3.39-.99-10.28-2.97-10.77-2.97-.49 0-9.84 1.23-14.45 1.844l-1.95 1.126-8.1.921-3.9 5.427 1.85 6.45-4.61-.614-.82 6.86-4.82.512.61-6.758-9.53-.614-.72 7.884-5.33.921-1.33-7.372h-1.13v-8.703l-9.02 1.434.92 6.45h-2.46l-1.02 7.27h-5.23v-6.45c-2.74-.24-8.33-.738-8.82-.82-.49-.082-1.5 4.471-1.95 6.758l-3.99 1.433-1.54-6.86h-3.69V67.4l-8-2.047-8.2 3.174-.61 25.187v41.16l-5.13-23.652-5.43 45.972v98.702l-1.13 2.355-1.64 5.221h1.64v13.925l-1.64-9.215-5.44 40.443-4.71-29.283-3.69 36.86h1.43l-.51 21.956-9.84-18.065-.82-5.12 1.84.631.93-2.678-2.77-1.946.82-8.546 1.95-2-5.54-29.182-2.66 16.998-13.21-118.328.63-1.026v-2.446l-1.19-1.183-1.97.552-1.58 2.209 1.58 1.894-4.27 41.577-1.97-20.323.39-1.846-1.66-2.367.79-5.996h3.16l-.71-1.341h-1.97v-1.736l-1.27-.552v2.288h-2.76l-.48 1.341h2.53l-.67 5.996-.83 2.367.83 1.846v4.087l-5.45 46.622-2.43-8.931-3.33 29.972.91 23.009-8.94 16.499.91-2.876-6.22-28.306-5.76 29.82 2.43 1.362 1.36 16.046-11.21 19.678V318.48l1.21-2.876-5-35.573-3.19 28.004-3.79-34.21-1.36-11.656-2.12-2.422v-65.695c-.1-12.615-.46-38.176-1.06-39.508-.61-1.333-3.39-30.729-4.7-45.261l-4.24 6.963 1.36-23.916-4.55-2.12 1.22-22.857-10.46-1.211-7.28 1.211v3.482h-5.3v7.417h-4.09l-1.37-2.573-2.73-3.936h-5.15l-1.36 5.45h-3.64v-4.39l-3.03-1.06-1.67-5.601h-8.18l-1.06 3.179H2225.12v1.514l-3.34.908v3.936h-5v-2.877l-3.18-1.967-1.36-8.628h-10.01l-3.33-4.693L2185.41 56l-7.88 3.18-11.07 3.027v80.076l-6.06-35.118-4.7 46.622.76 64.182-.76 42.536-2.12 22.101-5.76 36.027v21.798l-2.73 70.388-1.36 4.087 1.36 2.876-1.36 36.48-3.64-19.527-3.18 19.527h-1.52l-1.36 13.321 1.36 3.633v19.829z" fill="#2E5A9C"/><path d="M2574.03 514.823V772h560.7v-70.605l4.39-117.796v-68.776l-5.86-.366 1.47-47.558 12.44-13.901 1.83-25.242-17.93-4.756v-44.997l8.05-4.756v-17.194h-8.05l-2.2-21.583 5.86-5.122v-9.146l-5.86-3.292-7.69-60.362-7.32 16.097h-3.29l-8.05-51.582-2.56-4.024-4.39 49.021-6.23 4.39-2.92 13.901 6.22 6.951v18.657l-6.22 4.39v11.341H2897.2v-47.924l-5.86-7.316v-13.902l-1.83-18.291v-17.194l-17.57-10.609v-7.317l5.86-11.706v-10.609l-8.42-10.243V146.8l-4.39-14.633-6.59-13.536V74h-4.02v37.314l-4.4 11.707-2.56 13.17v34.388l-9.51 12.438v10.975l6.95 9.145-20.13 25.608-4.03 29.632-4.75 12.073v55.24l-198.37 2.926-2.56-21.949-4.76-14.268 7.32-14.633-2.56-2.926-4.76-26.706v-22.315l-7.69 2.926v14.633l-5.49 27.072h-3.66v15.73l-4.39 26.706h-3.29l-2.56 8.414 2.56 9.511v23.779h-8.79v14.267l3.66 9.512v38.778l-10.61 6.951v26.705l10.61 15.365v48.655h-6.58zM414 476h672v288H414z" fill="#2E5A9C"/></svg>
